storage/app/icons/phosphoricons/duotone/battery-warning-vertical-duotone.svg

<svg xmlns="http://www.w3.org/2000/svg" fill="currentColor" viewBox="0 0 256 256"><path d="M192 56v168a16 16 0 0 1-16 16H80a16 16 0 0 1-16-16V56a16 16 0 0 1 16-16h96a16 16 0 0 1 16 16" opacity=".2"/><path d="M88 8a8 8 0 0 1 8-8h64a8 8 0 0 1 0 16H96a8 8 0 0 1-8-8m112 48v168a24 24 0 0 1-24 24H80a24 24 0 0 1-24-24V56a24 24 0 0 1 24-24h96a24 24 0 0 1 24 24m-16 0a8 8 0 0 0-8-8H80a8 8 0 0 0-8 8v168a8 8 0 0 0 8 8h96a8 8 0 0 0 8-8Zm-56 88a8 8 0 0 0 8-8V96a8 8 0 0 0-16 0v40a8 8 0 0 0 8 8m0 16a12 12 0 1 0 12 12 12 12 0 0 0-12-12"/></svg>

<svg xmlns="http://www.w3.org/2000/svg" viewBox="0 0 256 256" fill="currentColor"><path d="M192,56V224a16,16,0,0,1-16,16H80a16,16,0,0,1-16-16V56A16,16,0,0,1,80,40h96A16,16,0,0,1,192,56Z" opacity="0.2"/><path d="M88,8a8,8,0,0,1,8-8h64a8,8,0,0,1,0,16H96A8,8,0,0,1,88,8ZM200,56V224a24,24,0,0,1-24,24H80a24,24,0,0,1-24-24V56A24,24,0,0,1,80,32h96A24,24,0,0,1,200,56Zm-16,0a8,8,0,0,0-8-8H80a8,8,0,0,0-8,8V224a8,8,0,0,0,8,8h96a8,8,0,0,0,8-8Zm-56,88a8,8,0,0,0,8-8V96a8,8,0,0,0-16,0v40A8,8,0,0,0,128,144Zm0,16a12,12,0,1,0,12,12A12,12,0,0,0,128,160Z"/></svg>
